packages/core/src/svgs/musd.svg

<svg width="24" height="24" viewBox="0 0 24 24" fill="none" xmlns="http://www.w3.org/2000/svg">
<g clip-path="url(#clip0_31_14456)">
<path d="M0 0H24V24H0V0Z" fill="#181B1E"/>
<path d="M5.57153 15.8572H18.4287V18.4286H5.57153V15.8572ZM11.143 4.71436H12.4287V14.5715H11.143V4.71436Z" fill="#F0F3FA"/>
<path d="M13.0671 8.14272H15.4114C15.4114 8.14272 15.4371 8.00129 15.4286 7.787C15.3943 7.08415 15.0857 5.57129 11.9357 5.57129C8.44713 5.57129 8.37856 7.67557 8.37856 7.98843C8.37856 8.23272 8.23713 9.78415 10.29 10.3027C12.3471 10.8213 13.2857 10.8727 13.2857 11.6313C13.2857 12.3941 12.6214 12.617 12.0686 12.617C11.5114 12.617 10.7143 12.5613 10.7143 11.5713H8.14284C8.14284 11.5713 7.96284 14.1427 11.9357 14.1427C15.9086 14.1427 15.8571 11.7427 15.8571 11.3784C15.8571 11.0356 15.78 9.69415 13.5257 9.137C11.2757 8.57986 10.7143 8.57129 10.7143 7.787C10.7143 7.14415 11.6057 7.07129 12.0428 7.07129C12.3557 7.07129 13.0671 7.067 13.0671 8.14272Z" fill="#F0F3FA"/>
</g>
<defs>
<clipPath id="clip0_31_14456">
<rect width="24" height="24" fill="white"/>
</clipPath>
</defs>
</svg>

<svg xmlns="http://www.w3.org/2000/svg" width="24" height="24" fill="none" viewBox="0 0 24 24"><g clip-path="url(#a)"><path fill="#181B1E" d="M0 0h24v24H0z"/><path fill="#F0F3FA" d="M5.572 15.857h12.857v2.572H5.572zm5.571-11.143h1.286v9.858h-1.286z"/><path fill="#F0F3FA" d="M13.067 8.143h2.344s.026-.142.018-.356c-.035-.703-.343-2.216-3.493-2.216-3.489 0-3.557 2.105-3.557 2.417 0 .245-.142 1.796 1.911 2.315 2.057.518 2.996.57 2.996 1.328 0 .763-.665.986-1.217.986-.558 0-1.355-.056-1.355-1.046H8.143s-.18 2.572 3.793 2.572 3.921-2.4 3.921-2.765c0-.342-.077-1.684-2.331-2.241-2.25-.557-2.812-.566-2.812-1.35 0-.643.892-.716 1.329-.716.313 0 1.024-.004 1.024 1.072"/></g><defs><clipPath id="a"><path fill="#fff" d="M0 0h24v24H0z"/></clipPath></defs></svg>
